X: 31429
T: Paddy Ryan's Dream
R: reel
M: 4/4
K: Adorian
cB|:AE~E2 cABG|(3EFG DB, G,B,DB,|A,2A,B, CB,CD|cABG ABcB|
AE~E2 cABG|(3EFG DB, G,B,DB,|A,2 A,B, CB,CD|1 EAAG A2cB:|2 EAAG ABcB||
|:Aaa^g aecA|Gggf gdBG|Aaa^g ae=fd|edcB cBAG|
Aaa^g aecA|Gggf gdBG|(3ABc Bd ced=f|edcB cBAG:|

